X:9093
T:La Virxen de Covadonga
R:Danza
C:Tradicional
S:Música Tradicional Asturiana, (C) Tello & Tito. Asturies, 2001.
S:http://pagina.de/MusTradAst <telloytito@asturies.org>
A:Asturies
Z:Les cuarenta principales
M:3/4
L:1/4
Q:3/4=40
K:C
|: E2 F|G3|AAA|A2 G :|
|B2 G|F2 G|A2 G|F3|
|G2 F|E3|B2 G|F2 G|
|A2 G|F3|G2 F|E3|


